!!!!SEGMENT: pl-cz--ii-246--001-002_anonim--partita-es-finale.krn
!!!cenid: 17xx:2185
!!!COM: Anonim
!!!COM-rismid: pe30004985
!!!CDT:
!!!CNT:
!!!OTL: Partita Es - Finale
!!!PDT:
!!!AGN: Secular
!!!SMS-siglum: PL-CZ
!!!SMS-shelfmark: II-246
!!!SMS-shelfwork: 001-002 M
!!!SMS-variant:
!!!SMS-altvar:
!!!NIFC-rismid: 1001012551
!!!URL-scan: http://repozytorium.nifc.pl/skany/pl-cz-nut--ii-246
!!!ONB-nifc: UWAGA: w źródle 2 Partity Es (początkowy nr 001 lub 002). Części 1. Partity: 1. Allegro, 2. Finale. Nast. cz. Allegro należy do 2. Partity
**kern	**dynam	**kern	**kern	**kern	**dynam	**kern	**kern	**kern
*part7	*part7	*part6	*part5	*part4	*part4	*part3	*part2	*part1
*staff7	*	*staff6	*staff5	*staff4	*	*staff3	*staff2	*staff1
*I"Cornu Secundo.	*	*I"Cornu Primo	*I"Fagotto.	*I"Clarinetto Secundo	*	*I"Clarinetto Primo	*I"Picolo Secundo	*I"Picolo Primo
*I'cor 2 in E|b	*	*I'cor 1 in E|b	*I'fag	*I'cl 2	*	*I'cl 1	*I'fl. picc 2	*I'fl. picc 1
*clefG2	*	*clefG2	*clefF4	*clefG2	*	*clefG2	*clefG2	*clefG2
*ITrd5c9	*	*ITrd5c9	*	*ITrd1c2	*	*ITrd1c2	*ITrd0c0	*ITrd0c0
*k[b-e-a-]	*	*k[b-e-a-]	*k[b-e-a-]	*k[b-e-a-]	*	*k[b-e-a-]	*k[b-e-a-]	*k[b-e-a-]
*M2/4	*	*M2/4	*M3/4	*M2/4	*	*M2/4	*M2/4	*M2/4
=1	=1	=1	=1	=1	=1	=1	=1	=1
*>A	*	*>A	*>A	*>A	*	*>A	*>A	*>A
*all\right	*	*all\right	*all\right	*all\right	*	*all\right	*	*
!	!	!	!LO:TX:t=P:problem:mixed beam	!	!	!	!	!
!	!	!	!LO:TX:t=P:problem:błędne oznaczenie metryczne: 3/4	!	!LO:DY:rj	!	!LO:TX:t=P:problem:brak partii	!LO:TX:t=P:problem:brak partii
4G/	.	4e-\	8EE-/L	4g/	f	4ee-\	2ryy	2ryy
.	.	.	8E-\	.	.	.	.	.
8G/L	.	8e-\L	8G\	8g/L	.	8ee-\L	.	.
8G/J	.	8e-\J	8E-\J	8g/J	.	8ee-\J	.	.
=2	=2	=2	=2	=2	=2	=2	=2	=2
4B-/	.	4f\	8D/L	4dd\	.	4ff\	2ryy	2ryy
.	.	.	8BB-/	.	.	.	.	.
8B-/L	.	8f\L	8D/	8dd\L	.	8ff\L	.	.
8B-/J	.	8f\J	8BB-/J	8dd\J	.	8ff\J	.	.
=3	=3	=3	=3	=3	=3	=3	=3	=3
4G/	.	4e-\	4E-\	4ee-\	.	8gg\L	2ryy	2ryy
.	.	.	.	.	.	8aa-\	.	.
4B-/	.	4f\	4BB-\	4b-\	.	8ff\	.	.
.	.	.	.	.	.	8dd\J	.	.
=4	=4	=4	=4	=4	=4	=4	=4	=4
4G/	.	4e-\	4E-\	4ee-\	.	8gg\L	2ryy	2ryy
.	.	.	.	.	.	8aa-\	.	.
4B-/	.	4f\	4BB-\	4b-\	.	8ff\	.	.
.	.	.	.	.	.	8dd\J	.	.
=5	=5	=5	=5	=5	=5	=5	=5	=5
!	!	!	!LO:TX:t=P:problem:mixed beam	!	!	!	!	!
4G/	.	4e-\	8EE-/L	4g/	.	4ee-\	2ryy	2ryy
.	.	.	8E-\	.	.	.	.	.
8G/L	.	8e-\L	8G\	8g/L	.	8ee-\L	.	.
8G/J	.	8e-\J	8E-\J	8g/J	.	8ee-\J	.	.
=6	=6	=6	=6	=6	=6	=6	=6	=6
4B-/	.	4f\	8C/L	4dd\	.	4ff\	2ryy	2ryy
.	.	.	8C/	.	.	.	.	.
8B-/L	.	8f\L	8D/	8dd\L	.	8ff\L	.	.
8B-/J	.	8f\J	8BB-/J	8dd\J	.	8ff\J	.	.
=7	=7	=7	=7	=7	=7	=7	=7	=7
4G/	.	4e-\	4BB-/	4ee-\	.	8gg\L	2ryy	2ryy
.	.	.	.	.	.	8aa-\	.	.
4B-/	.	4f\	4BB-/	4b-\	.	8ff\	.	.
.	.	.	.	.	.	8dd\J	.	.
=8	=8	=8	=8	=8	=8	=8	=8	=8
4G/	.	4e-\	4EE-/	4g/	.	4ee-\	2ryy	2ryy
4r	.	4r	4r	4r	.	4r	.	.
=9:|!|:	=9:|!|:	=9:|!|:	=9:|!|:	=9:|!|:	=9:|!|:	=9:|!|:	=9:|!|:	=9:|!|:
*>B	*	*>B	*>B	*>B	*	*>B	*>B	*>B
4B-/	.	4b-\	8B-\L	8b-\L	.	8bb-'\L	2ryy	2ryy
.	.	.	8B-\	8b-\	.	8bb-'\	.	.
4r	.	4r	8B-\	8b-\	.	(8bb-\	.	.
.	.	.	8A-\J	8a-X\J	.	8aa-\J)	.	.
=10	=10	=10	=10	=10	=10	=10	=10	=10
4B-/	.	4b-\	8G\L	8g/L	.	8gg'\L	2ryy	2ryy
.	.	.	8G\	8g/	.	8gg'\	.	.
4r	.	4r	8G\	8g/	.	(8gg\	.	.
.	.	.	8F\J	8f/J	.	8ff\J)	.	.
!	!	!	!	!	!	!LO:LB:g=original	!	!
=11	=11	=11	=11	=11	=11	=11	=11	=11
4G/	.	4e-\	4E-\	8e-/L	.	8ee-\L	2ryy	2ryy
.	.	.	.	8e-/	.	8ee-\	.	.
4G/	.	4e-\	4E-\	8e-/	.	8ee-\	.	.
!	!	!	!	!LO:SIC:v:s=8g/J	!	!	!	!
.	.	.	.	8f/J	.	8gg\J	.	.
!	!	!	!LO:LB:g=original	!	!	!	!	!
=12	=12	=12	=12	=12	=12	=12	=12	=12
!	!	!	!LO:TX:t=P:problem:mixed beam	!	!	!	!	!
4B-/	.	4g\	8BB-/L	8f/L	.	8ff\L	2ryy	2ryy
.	.	.	8B-\J	8d/J	.	8dd\J	.	.
4B-/	.	4g\	4BB-/	4B-/	.	4b-\	.	.
!	!	!	!	!LO:LB:g=original	!	!	!	!
=13	=13	=13	=13	=13	=13	=13	=13	=13
4G/	.	4e-\	8E-\L	4g/	.	4ee-\	2ryy	2ryy
.	.	.	8F\	.	.	.	.	.
8G/L	.	8e-\L	8G\	8g/L	.	8ee-\L	.	.
8G/J	.	8e-\J	8F\J	8g/J	.	8ee-\J	.	.
!	!	!LO:LB:g=original	!	!	!	!	!	!
=14	=14	=14	=14	=14	=14	=14	=14	=14
4B-/	.	4f\	8BB-/L	4dd\	.	4ff\	2ryy	2ryy
.	.	.	8C/	.	.	.	.	.
8B-/L	.	8f\L	8D/	8dd\L	.	8ff\L	.	.
8B-/J	.	8f\J	8BB-/J	8dd\J	.	8ff\J	.	.
=15	=15	=15	=15	=15	=15	=15	=15	=15
4G/	.	4e-\	4E-\	4ff\	.	8gg\L	2ryy	2ryy
.	.	.	.	.	.	8aa-\	.	.
4B-/	.	4g\	4BB-/	4dd\	.	8ff\	.	.
.	.	.	.	.	.	8dd\J	.	.
=16	=16	=16	=16	=16	=16	=16	=16	=16
!	!	!	!	!LO:N:vis=4.	!	!	!	!
4G/	.	4e-\	4EE-/	4g/	.	4ee-\	2ryy	2ryy
4r	.	4r	4r	4ryy	.	4r	.	.
!LO:LB:g=original	!	!	!	!	!	!	!	!
=17:|!|:	=17:|!|:	=17:|!|:	=17:|!|:	=17:|!|:	=17:|!|:	=17:|!|:	=17:|!|:	=17:|!|:
*>C	*	*>C	*>C	*>C	*	*>C	*>C	*>C
*	*	*2\right	*	*	*	*	*	*
!	!	!	!LO:TX:t=P:problem:mixed beam	!	!	!	!	!
2E-/	.	2e-\	8EE-/L	8b-\L	.	8b-\L	2ryy	2ryy
.	.	.	8E-\	8g\	.	8ee-\	.	.
.	.	.	8E-\	8g\	.	8ee-\	.	.
.	.	.	8E-\J	8g\J	.	8ee-\J	.	.
=18	=18	=18	=18	=18	=18	=18	=18	=18
!	!LO:DY:a	!	!LO:TX:t=P:problem:mixed beam	!	!	!	!	!
2G/	p	2e-\	8EE-/L	4.g\	.	4.ee-\	2ryy	2ryy
.	.	.	8E-\	.	.	.	.	.
.	.	.	8E-\	.	.	.	.	.
.	.	.	8E-\J	8b-\	.	8gg\	.	.
=19	=19	=19	=19	=19	=19	=19	=19	=19
!	!	!	!LO:TX:t=P:problem:mixed beam	!	!	!	!	!
4B-/	.	4f\	8BB-/L	8a-\L	.	8ff\L	2ryy	2ryy
.	.	.	8B-\	8g\	.	8ee-\	.	.
4B-/	.	4f\	8B-\	8a-\	.	8ff\	.	.
.	.	.	8B-\J	8b-\J	.	8gg\J	.	.
=20	=20	=20	=20	=20	=20	=20	=20	=20
!	!	!	!LO:TX:t=P:problem:mixed beam	!LO:TX:t=P:problem:2 ćwierćnuty - cauda z lewej	!	!	!	!
4G/	.	4e-\	8EE-/L	4g/	.	4ee-\	2ryy	2ryy
.	.	.	8E-\	.	.	.	.	.
4G/	.	4e-\	8E-\	4g/	.	4b-\	.	.
.	.	.	8E-\J	.	.	.	.	.
=21	=21	=21	=21	=21	=21	=21	=21	=21
!	!	!	!LO:TX:t=P:problem:mixed beam	!	!	!	!	!
2E-/	.	2e-\	8EE-/L	8b-\L	.	8b-\L	2ryy	2ryy
.	.	.	8E-\	8g\	.	8ee-\	.	.
.	.	.	8E-\	8g\	.	8ee-\	.	.
.	.	.	8E-\J	8g\J	.	8ee-\J	.	.
=22	=22	=22	=22	=22	=22	=22	=22	=22
!	!	!	!LO:TX:t=P:problem:mixed beam	!	!	!	!	!
2G/	.	2e-\	8EE-/L	4.g-\	.	4.ee-\	2ryy	2ryy
.	.	.	8E-\	.	.	.	.	.
.	.	.	8E-\	.	.	.	.	.
.	.	.	8E-\J	8b-\	.	8gg\	.	.
!	!	!	!	!	!	!LO:LB:g=original	!	!
=23	=23	=23	=23	=23	=23	=23	=23	=23
!	!	!	!LO:TX:t=P:problem:mixed beam	!	!	!	!	!
4B-/	.	4f\	8BB-/L	8a-\L	.	8ff\L	2ryy	2ryy
.	.	.	8B-\	8g\	.	8ee-\	.	.
4B-/	.	4f\	8B-\	8a-\	.	8ff\	.	.
.	.	.	8BB-/J	8b-\J	.	8gg\J	.	.
!	!	!	!LO:LB:g=original	!	!	!	!	!
=24	=24	=24	=24	=24	=24	=24	=24	=24
!	!	!	!	!LO:N:vis=4.	!	!	!	!
4G/	.	4e-\	4E-\	4g/	.	4ee-\	2ryy	2ryy
4r	.	4r	4r	4ryy	.	4r	.	.
!	!	!	!	!LO:LB:g=original	!	!	!	!
=25:|!|:	=25:|!|:	=25:|!|:	=25:|!|:	=25:|!|:	=25:|!|:	=25:|!|:	=25:|!|:	=25:|!|:
*>D	*	*>D	*>D	*>D	*	*>D	*>D	*>D
!	!	!	!LO:TX:t=P:problem:mixed beam	!	!	!	!	!
4G/	.	4e-\	8EE-/L	4g/	.	4ee-\	2ryy	2ryy
.	.	.	8E-\	.	.	.	.	.
8G/L	.	8e-\L	8G\	8g/L	.	8ee-\L	.	.
8G/J	.	8e-\J	8E-\J	8g/J	.	8ee-\J	.	.
=26	=26	=26	=26	=26	=26	=26	=26	=26
4B-/	.	4f\	8D/L	4dd\	.	4ff\	2ryy	2ryy
.	.	.	8BB-/	.	.	.	.	.
8B-/L	.	8f\L	8D/	8dd\L	.	8ff\L	.	.
8B-/J	.	8f\J	8BB-/J	8dd\J	.	8ff\J	.	.
=27	=27	=27	=27	=27	=27	=27	=27	=27
4G/	.	4e-\	4E-\	4ee-\	.	8gg\L	2ryy	2ryy
.	.	.	.	.	.	8aa-\	.	.
4B-/	.	4f\	4BB-\	4b-\	.	8ff\	.	.
.	.	.	.	.	.	8dd\J	.	.
=28	=28	=28	=28	=28	=28	=28	=28	=28
4G/	.	4e-\	4E-\	4ee-\	.	8gg\L	2ryy	2ryy
.	.	.	.	.	.	8aa-\	.	.
4B-/	.	4f\	4BB-\	4b-\	.	8ff\	.	.
.	.	.	.	.	.	8dd\J	.	.
!	!	!LO:LB:g=original	!	!	!	!	!	!
=29	=29	=29	=29	=29	=29	=29	=29	=29
!	!	!	!LO:TX:t=P:problem:mixed beam	!	!	!	!	!
4G/	.	4e-\	8EE-/L	4g/	.	4ee-\	2ryy	2ryy
.	.	.	8E-\	.	.	.	.	.
8G/L	.	8e-\L	8G\	8g/L	.	8ee-\L	.	.
8G/J	.	8e-\J	8E-\J	8g/J	.	8ee-\J	.	.
=30	=30	=30	=30	=30	=30	=30	=30	=30
4B-/	.	4f\	8BB-/L	4dd\	.	4ff\	2ryy	2ryy
.	.	.	8C/	.	.	.	.	.
8B-/L	.	8f\L	8D/	8dd\L	.	8ff\L	.	.
8B-/J	.	8f\J	8BB-/J	8dd\J	.	8ff\J	.	.
=31	=31	=31	=31	=31	=31	=31	=31	=31
4G/	.	4e-\	4BB-/	4ee-\	.	8gg\L	2ryy	2ryy
.	.	.	.	.	.	8aa-\	.	.
4B-/	.	4f\	4BB-/	4b-\	.	8ff\	.	.
.	.	.	.	.	.	8dd\J	.	.
=32	=32	=32	=32	=32	=32	=32	=32	=32
4G/	.	4e-\	4EE-/	4b-\	.	4ee-\	2ryy	2ryy
4r	.	4r	4r	4r	.	4r	.	.
=33:|!|:	=33:|!|:	=33:|!|:	=33:|!|:	=33:|!|:	=33:|!|:	=33:|!|:	=33:|!|:	=33:|!|:
*>E	*	*>E	*>E	*>E	*	*>E	*>E	*>E
4B-/	.	4b-\	8B-\L	8b-\L	.	8bb-\L	2ryy	2ryy
.	.	.	8B-\	8b-\	.	8bb-\	.	.
4r	.	4r	8B-\	8b-\	.	8bb-\	.	.
.	.	.	8A-\J	8a-\J	.	8aa-\J	.	.
!LO:LB:g=original	!	!	!	!	!	!LO:LB:g=original	!	!
=34	=34	=34	=34	=34	=34	=34	=34	=34
4B-/	.	4b-\	8G\L	8g\L	.	8gg\L	2ryy	2ryy
.	.	.	8G\	8g\	.	8gg\	.	.
4r	.	4r	8G\	8g\	.	8gg\	.	.
.	.	.	8F\J	8f\J	.	8ff\J	.	.
=35	=35	=35	=35	=35	=35	=35	=35	=35
4G/	.	4e-\	4E-\	8e-/L	.	8ee-\L	2ryy	2ryy
.	.	.	.	8e-/	.	8ee-\	.	.
4G/	.	4e-\	4E-\	8e-/	.	8ee-\	.	.
!	!	!	!	!LO:SIC:v:s=8g/J	!	!	!	!
.	.	.	.	8f/J	.	8gg\J	.	.
=36	=36	=36	=36	=36	=36	=36	=36	=36
!	!	!	!LO:TX:t=P:problem:mixed beam	!	!	!	!	!
4B-/	.	4f\	8BB-/L	8f/L	.	8ff\L	2ryy	2ryy
.	.	.	8B-\J	8d/J	.	8dd\J	.	.
4B-/	.	4f\	4BB-/	4B-/	.	4b-\	.	.
!	!	!	!LO:LB:g=original	!LO:LB:g=original	!	!	!	!
=37	=37	=37	=37	=37	=37	=37	=37	=37
4G/	.	4e-\	8E-\L	4g/	.	4ee-\	2ryy	2ryy
.	.	.	8F\	.	.	.	.	.
8G/L	.	8e-\L	8G\	8g/L	.	8ee-\L	.	.
8G/J	.	8e-\J	8F\J	8g/J	.	8ee-\J	.	.
=38	=38	=38	=38	=38	=38	=38	=38	=38
4B-/	.	4f\	8BB-/L	4dd\	.	4ff\	2ryy	2ryy
.	.	.	8C/	.	.	.	.	.
8B-/L	.	8f\L	8D/	8dd\L	.	8ff\L	.	.
8B-/J	.	8f\J	8BB-/J	8dd\J	.	8ff\J	.	.
=39	=39	=39	=39	=39	=39	=39	=39	=39
4G/	.	4e-\	4E-\	4ee-\	.	8gg\L	2ryy	2ryy
.	.	.	.	.	.	8aa-\	.	.
4B-/	.	4f\	4BB-/	4b-\	.	8ff\	.	.
.	.	.	.	.	.	8dd\J	.	.
=40	=40	=40	=40	=40	=40	=40	=40	=40
4G/	.	4e-\	4EE-/	4g/	.	4ee-\	2ryy	2ryy
4r	.	4r	4r	4r	.	4r	.	.
=41:|!|:	=41:|!|:	=41:|!|:	=41:|!|:	=41:|!|:	=41:|!|:	=41:|!|:	=41:|!|:	=41:|!|:
*>F	*	*>F	*>F	*>F	*	*>F	*>F	*>F
*	*	*	*	*2\right	*	*2\right	*	*
2B-/	.	2f\	2BB-/	2ee-\	.	2ff\	2ryy	2ryy
=42	=42	=42	=42	=42	=42	=42	=42	=42
4e-\	.	4g\	4E-\	4ee-\	.	4gg\	2ryy	2ryy
4r	.	4r	4r	4r	.	4r	.	.
!	!	!LO:LB:g=original	!	!	!	!	!	!
=43	=43	=43	=43	=43	=43	=43	=43	=43
2B-/	.	2f\	2BB-/	2b-\	.	2ff\	2ryy	2ryy
=44	=44	=44	=44	=44	=44	=44	=44	=44
4G/	.	4e-\	4EE-/	4g/	.	4ee-\	2ryy	2ryy
4r	.	4r	4r	4r	.	4r	.	.
=45	=45	=45	=45	=45	=45	=45	=45	=45
4G/	.	4e-\	8E-\L	4g/	.	4ee-\	2ryy	2ryy
.	.	.	8F\	.	.	.	.	.
8G/L	.	8e-\L	8G\	8g/L	.	8ee-\L	.	.
8G/J	.	8e-\J	8F\J	8g/J	.	8ee-\J	.	.
=46	=46	=46	=46	=46	=46	=46	=46	=46
4B-/	.	4f\	8BB-/L	4dd\	.	4ff\	2ryy	2ryy
.	.	.	8C/	.	.	.	.	.
8B-/L	.	8f\L	8D/	8dd\L	.	8ff\L	.	.
8B-/J	.	8f\J	8BB-/J	8dd\J	.	8ff\J	.	.
=47	=47	=47	=47	=47	=47	=47	=47	=47
4G/	.	4e-\	4E-\	4ee-\	.	8gg\L	2ryy	2ryy
.	.	.	.	.	.	8aa-\	.	.
4B-/	.	4f\	4BB-/	4b-\	.	8ff\	.	.
.	.	.	.	.	.	8dd\J	.	.
=48	=48	=48	=48	=48	=48	=48	=48	=48
!	!	!	!	!	!	!LO:TX:t=P:problem:brak taktu (skan uciety)	!	!
4G/	.	4e-\	4EE-/	4g/	.	2ryy	2ryy	2ryy
4r	.	4r	4r	4r	.	.	.	.
=:|!	=:|!	=:|!	=:|!	=:|!	=:|!	=:|!	=:|!	=:|!
*-	*-	*-	*-	*-	*-	*-	*-	*-
!!!system-decoration: [(s1,s2,s3,s4,s5)][(s6,s7)]
!!!ENC: Krzysztof Stępień
!!!END: 2021-06-17
!!!EED: Andrzej Borzym
!!!EST: 2021-06-23
